X: 29360
T: Newmarket
R: polka
M: 2/4
K: Dmajor
|:Ad df|ed B/c/d/B/|Ad de|fe e2|
Ad df|ed B/c/d/B/|Ad de|fd d2:|
|:f/g/a gf|ed B/c/d/B/|Ad de|fe e2|
f/g/a gf|ed B/c/d/B/|Ad de|fd d2:|

